!!!COM: Ludwig van Beethoven
!!!CNT: Deutsch
!!!TXO: Deutsch
!!!OTL: "Der Zufriedene"
!!!LYR: Goethe, Johann Wolfgang
!!!OPS: Op. 75
!!!ONM: No. 6
!!!ENC: Amanda Harris
!!!YOR: Sa2mtliche Lieder, Band 1
!!!YOR: G. Henle Verlag
!!!ODT: 1809/
!!NB: Vocal melody and text encoded.
**kern	**silbe
*clefG2	*
*k[f#c#g#]	*
*M2/4	*
*MM[froh und heiter, etwas lebhaft]	*
=2	=2
4r	.
8r	.
{16ee	{Zwar
16dd	|
=3	=3
8cc#	schuf
8ee	das
8b	Glu2ck
8cc#	hei-
=4	=4
4a	-nie-
8f#	-den
8g#	mich
=5	=5
8a	we-
8b	-der
8cc#	reich
8ee	noch
=6	=6
2ee}	gross,}
=7	=7
4r	.
8r	.
{16ee	{al-
16dd	|
=8	=8
8cc#	-lein
8ee	ich
8b	bin
8cc#	zu-
=9	=9
4a	frie-
8f#	-den
8g#	wie
=10	=10
8a	mit
8b	dem
8cc#	scho2n-
8ee	-sten
=11	=11
4.ee}	Los,}
{8ee	{wie
=12	=12
8dd	mit
8b	dem
8g#	scho2n-
8b	-sten
=13	=13
4a}	Los.}
4r	.
*-	*-
